X:1
T:- # -
%%score [ 1 2 3 4 ]
L:1/8
M:6/4
K:F
V:1 treble nm="Midi_57" snm=" "
V:2 treble nm="Midi_69"
V:3 treble-8 nm="Midi_69"
V:4 bass nm="Midi_69"
V:1
 F2 | (F2 C2)"^Der Heiland ist geboren\n" A2 (F2"^für Georg Christoph Sandmann" C2) A2 | %2
w: Der|Hei- * land ist * ge-|
w: sonst|wärn * wir gar * ver-|
 (F2 f2 ed) c4"^Melodie: Innsbruck 1881\nSatz: Martin Böttger 2013\n" c2 | %3
w: bo- * * * ren, freu|
w: lo- * * * ren in|
[M:6/4] (B2 G2) B2 (A2 F2) A2 | G6- G2 z2 :| c2 | (c2 G2) c2 c2 A2 c2 | (c2 B2) A2 G4 c2 | %8
w: dich, * du Chri- * sten-|heit; *|freut|euch * von Her- zen, ihr|Chri- * sten all, kommt|
w: al- * le E- * wig-|keit. *||||
 (c2 G2) c2 (c2 A2) c2 | (c2 B2) A2 G4 F2 | (F2 C2) A2 F2 C2 A2 | (F2 f2) ed c4 c2 | %12
w: her * zum Kind- * lein|in * den Stall; freut|euch * von Her- zen ihr|Chri- * sten * all, kommt|
w: ||||
 (B2 G2) c2 (A2 F2) cd | (c2 B2) G2 x2 F4 |] %14
w: her * zum Kind- * lein *|in * den Stall.|
w: ||
V:2
 F2 | (F2 C2) A2 (F2 C2) E2 | (F4 G)F E4 E2 |[M:6/4] E4 C2 C4 CD | E6- E2 z2 :| z2 | %6
w: Der|Hei- * land ist * ge-|bo- * * ren, freu|dich, du Chri- sten- *|heit; *||
w: sonst|wärn * wir gar * ver-|lo- * * ren in|al- le E- wig- *|keit. *||
 EF GF GE FG AG AF | (A2 G2) F2 E4 z2 | GF EF GE AGFG AF | (A2 G2) F2 C4 F2 | (F2 C2) A2 F2 C2 E2 | %11
w: freut * euch * von * Her- * zen * ihr *|Chri- * sten all,|kommt * her * zum * Kind- * * * lein *|in * den Stall; freut|euch * von Her- zen ihr|
w: |||||
 (F2 _A2) GF E4 E2 | EFGF GE FGAG AF | (E2 G2) E2 x2 C4 |] %14
w: Chri- * sten * all, kommt|her * * * zum * Kind- * * * lein *|in * den Stall.|
w: |||
V:3
 F2 | (F2 C2) A2 (F2 C2) A2 | (A2 d2 c=B) c4 z2 |[M:6/4][K:treble-8] G2 c2 G2 F4 F2 | c6- c2 z2 :| %5
w: Der|Hei- * land ist * ge-|bo- * * * ren|freu~ dich, du Chri- sten-|heit; *|
w: sonst|wärn * wir gar * ver-|lo- * * * ren|in al- le E- wig-|keit. *|
 c2 | G4 B2 AB cB cA | FAcd c=B c4 c2 | c4 BG (F2 c2) F2 | FAcd c2 c4 F2 | (F2 C2) A2 F2 C2 A2 | %11
w: freut|euch von Her- * zen * ihr *|Chri- * * * sten * all, kommt|her zum * Kind- * lein|in * * * den Stall; freut|euch * von Her- zen ihr|
w: ||||||
 (A2 d2) c=B c4 G2 | (G2 c2) c2 c4 cB | (G2 c2) B2 x2 A4 |] %14
w: Chri- * sten * all, kommt|her * zum Kind- lein *|in * den Stall.|
w: |||
V:4
 F,2 | (F,2 C,2) A,2 (F,2 C,2) ^C,2 | (D,2 =B,,2 G,,2) C,4 z2 | %3
w: Der|Hei- * land ist * ge-|bo- * * ren,|
w: sonst|wärn * wir gar * ver-|lo- * * ren|
[M:6/4] C,2 C,2 E,2 (F,2 D,2) A,,B,, | C,6- C,2 z2 :| C,2 | C,4 C,2 F,2 F,2 F,2 | C,4 C,2 C,4 E,2 | %8
w: freu dich, du Chri- * sten- *|heit; *|freut|euch von Her- zen, ihr|Chri- sten all, kommt|
w: in al- le E- * wig- *|keit. *||||
 E,4 C,2 F,4 F,2 | C,4 D,2 E,4 F,2 | (F,2 C,2) A,2 F,2 C,2 ^C,2 | (D,2 =B,,2) G,,2 C,4 C,2 | %12
w: her zum Kind- lein|in den Stall; freut|euch * von Her- zen ihr|Chri- * sten all, kommt|
w: ||||
 (C,D, E,2) C,2 F,4 A,,B,, | %13
w: her * * zum Kind- lein *|
w: |
 C,4"^erste Aufführungen am 29. 12. 2013\nin der Versöhnungskirche Zwickau\nund am 31.12.2013 in Kirchberg" C,2 x2"^2. Das Kindlein auserkoren,\nfreu dich, du Christenheit,\ndas in dem Stall geboren,\nhat Himmel und Erd erfreut.\nFreut euch...\n\n3. Die Engel lieblich singen,\nfreu dich, du Christenheit,\ntun gute Botschaft bringen,\nverkündigen große Freud!\nFreut euch ...\n" F,,4 |] %14
w: in den Stall.|
w: |

